scalable/status/warning.svg

<?xml version="1.0" encoding="UTF-8" standalone="no"?>
<svg
   xmlns:dc="http://purl.org/dc/elements/1.1/"
   xmlns:cc="http://creativecommons.org/ns#"
   xmlns:rdf="http://www.w3.org/1999/02/22-rdf-syntax-ns#"
   xmlns:svg="http://www.w3.org/2000/svg"
   xmlns="http://www.w3.org/2000/svg"
   xmlns:sodipodi="http://sodipodi.sourceforge.net/DTD/sodipodi-0.dtd"
   xmlns:inkscape="http://www.inkscape.org/namespaces/inkscape"
   fill="#000000"
   height="48"
   viewBox="0 0 48 48"
   width="48"
   version="1.1"
   id="svg4"
   sodipodi:docname="warning.svg"
   inkscape:version="0.92.3 (2405546, 2018-03-11)">
  <metadata
     id="metadata10">
    <rdf:RDF>
      <cc:Work
         rdf:about="">
        <dc:format>image/svg+xml</dc:format>
        <dc:type
           rdf:resource="http://purl.org/dc/dcmitype/StillImage" />
      </cc:Work>
    </rdf:RDF>
  </metadata>
  <defs
     id="defs8" />
  <sodipodi:namedview
     pagecolor="#ffffff"
     bordercolor="#666666"
     borderopacity="1"
     objecttolerance="10"
     gridtolerance="10"
     guidetolerance="10"
     inkscape:pageopacity="0"
     inkscape:pageshadow="2"
     inkscape:window-width="1366"
     inkscape:window-height="690"
     id="namedview6"
     showgrid="false"
     showguides="true"
     inkscape:guide-bbox="true"
     inkscape:zoom="4.9166667"
     inkscape:cx="-10.271186"
     inkscape:cy="24"
     inkscape:window-x="0"
     inkscape:window-y="28"
     inkscape:window-maximized="1"
     inkscape:current-layer="svg4" />
  <path
     style="fill:#ff2a2a;stroke:none;stroke-width:1px;stroke-linecap:butt;stroke-linejoin:miter;stroke-opacity:1;fill-opacity:1"
     d="M 24 4 L 2 42 L 46 42 L 24 4 z M 23.796875 11.744141 C 25.264663 11.744141 26.455078 12.936508 26.455078 14.404297 L 26.455078 27.699219 C 26.455078 29.166923 25.264579 30.357422 23.796875 30.357422 C 22.32917 30.357422 21.136719 29.167007 21.136719 27.699219 L 21.136719 14.404297 C 21.136719 12.936592 22.329087 11.744141 23.796875 11.744141 z M 23.796875 32.974609 A 2.6589856 2.6589856 0 0 1 26.455078 35.632812 A 2.6589856 2.6589856 0 0 1 23.796875 38.292969 A 2.6589856 2.6589856 0 0 1 21.136719 35.632812 A 2.6589856 2.6589856 0 0 1 23.796875 32.974609 z "
     id="path825" />
</svg>

<svg xmlns="http://www.w3.org/2000/svg" xmlns:xlink="http://www.w3.org/1999/xlink" height="48" width="48"><defs><linearGradient id="b"><stop offset="0" stop-color="#040000"/><stop offset="1" stop-color="#000001" stop-opacity="0"/></linearGradient><linearGradient id="a"><stop offset="0" stop-color="#b3b3b3"/><stop offset="1" stop-color="#fff"/></linearGradient><linearGradient xlink:href="#a" id="d" x1="21.14" y1="21.05" x2="26.46" y2="21.05" gradientUnits="userSpaceOnUse"/><linearGradient xlink:href="#a" id="e" x1="21.14" y1="35.63" x2="26.46" y2="35.63" gradientUnits="userSpaceOnUse"/><linearGradient xlink:href="#b" id="c" gradientUnits="userSpaceOnUse" x1="22.14" y1="29.6" x2="51.49" y2="29.6"/></defs><path d="M24 4L2 42h44z" fill="#ff2a2a"/><path d="M26.3 42H46L33.28 20.04l-7.78-7.79-3.36 17.51 3.81 3.81-3.63 4.45z" fill="url(#c)" opacity=".5"/><path d="M23.8 11.74c1.46 0 2.66 1.2 2.66 2.66v13.3a2.66 2.66 0 0 1-5.32 0V14.4c0-1.46 1.19-2.66 2.66-2.66z" fill="url(#d)"/><path d="M23.8 32.97a2.66 2.66 0 0 1 2.66 2.66 2.66 2.66 0 0 1-2.66 2.66 2.66 2.66 0 0 1-2.66-2.66 2.66 2.66 0 0 1 2.66-2.66z" fill="url(#e)"/></svg>
